src/Static/Icons/cock.svg

<?xml version="1.0" encoding="UTF-8"?>
<svg width="159px" height="224px" viewBox="0 0 159 224" version="1.1" xmlns="http://www.w3.org/2000/svg" xmlns:xlink="http://www.w3.org/1999/xlink">
    <title>penis</title>
    <defs>
        <filter x="-22.7%" y="-14.7%" width="145.4%" height="129.3%" filterUnits="objectBoundingBox" id="filter-1">
            <feOffset dx="0" dy="4" in="SourceAlpha" result="shadowOffsetOuter1"></feOffset>
            <feGaussianBlur stdDeviation="5" in="shadowOffsetOuter1" result="shadowBlurOuter1"></feGaussianBlur>
            <feColorMatrix values="0 0 0 0 0   0 0 0 0 0   0 0 0 0 0  0 0 0 1 0" type="matrix" in="shadowBlurOuter1" result="shadowMatrixOuter1"></feColorMatrix>
            <feMerge>
                <feMergeNode in="shadowMatrixOuter1"></feMergeNode>
                <feMergeNode in="SourceGraphic"></feMergeNode>
            </feMerge>
        </filter>
    </defs>
    <g id="Page-1" stroke="none" stroke-width="1" fill="none" fill-rule="evenodd">
        <g id="Parabéns" transform="translate(-118.000000, -138.000000)" fill-rule="nonzero">
            <g id="penis" filter="url(#filter-1)" transform="translate(138.000000, 158.000000)">
                <path d="M86.5454545,130 L59.5,130 L32.4545455,130 C14.5580273,130 0,144.53356 0,162.4 C0,169.47184 2.24513333,176.1952 6.49199091,181.84324 C7.51683333,183.20368 9.11720303,184 10.8181818,184 L59.5,184 L108.181818,184 C109.882797,184 111.483167,183.20368 112.508009,181.84324 C116.754867,176.1952 119,169.47184 119,162.4 C119,144.53356 104.441973,130 86.5454545,130 Z" id="Path" fill="#FFB3B3"></path>
                <path d="M112.453455,181.84324 C116.736,176.1952 119,169.47184 119,162.4 C119,144.53356 104.319636,130 86.2727273,130 L59,130 L59,184 L108.090909,184 C109.806182,184 111.42,183.20368 112.453455,181.84324 Z" id="Path" fill="#FF9999"></path>
                <path d="M92.5714286,151.209151 C89.5763048,151.209151 87.1428571,148.790562 87.1428571,145.813726 L87.1428571,87 L60,87 L32.8571429,87 L32.8571429,145.813726 C32.8571429,148.790562 30.4236952,151.209151 27.4285714,151.209151 C24.428019,151.209151 22,153.622344 22,156.604575 C22,159.586806 24.428019,162 27.4285714,162 L60,162 L92.5714286,162 C95.571981,162 98,159.586806 98,156.604575 C98,153.622344 95.571981,151.209151 92.5714286,151.209151 Z" id="Path" fill="#FFCCCC"></path>
                <path d="M97,156.604575 C97,153.622344 94.571981,151.209151 91.5714286,151.209151 C88.5763048,151.209151 86.1428571,148.790562 86.1428571,145.813726 L86.1428571,87 L59,87 L59,162 L91.5714286,162 C94.571981,162 97,159.586806 97,156.604575 Z" id="Path" fill="#FFB3B3"></path>
                <path d="M91.8035787,62.4546676 C83.5649622,48.1952637 70.364501,40.5755858 60,43.6912469 C49.6463565,40.5755858 36.4350378,48.1952637 28.1964213,62.4546676 C24.0876085,69.571166 21.8875317,77.6744894 22.00443,84.6213321 C22.1368906,92.4584153 25.3126884,98.7429132 30.7146208,101.864 C40.4674866,107.482898 52.3976288,101.184292 60,92.622645 C60.0032572,92.6186659 60.0072383,92.6161337 60.0104955,92.6121546 C69.0601619,102.775584 80.813328,106.760143 89.2853792,101.864 C94.6876736,98.7429132 97.8631094,92.4584153 97.99557,84.6213321 C98.1124683,77.6744894 95.9123915,69.571166 91.8035787,62.4546676 L91.8035787,62.4546676 Z" id="Path" fill="#FFB3B3"></path>
                <path d="M88.2853998,101.91324 C93.687698,98.7895418 96.863136,92.4997869 96.9955967,84.656148 C97.1121332,77.7034944 94.9120548,69.5933926 90.8036011,62.4709412 C82.5649788,48.1996095 69.3645083,40.5735578 59,43.6918252 L59,92.664516 C59.0032572,92.6605335 59.0072383,92.6579992 59.0104955,92.6540168 C68.0601683,102.825585 79.8137045,106.813478 88.2853998,101.91324 Z" id="Path" fill="#FF9999"></path>
                <path d="M23.6113301,41.3885067 L12.6112384,30.3885525 C10.4629205,28.2402615 10.4629205,24.7595093 12.6112384,22.6112183 C14.7595563,20.4629272 18.240352,20.4629272 20.3886699,22.6112183 L31.3887616,33.6111725 C33.5370795,35.7594635 33.5370795,39.2402157 31.3887616,41.3885067 C29.240077,43.5371644 25.759648,43.5371644 23.6113301,41.3885067 L23.6113301,41.3885067 Z" id="Path" fill="#EDF5FF"></path>
                <path d="M87.6112384,41.3885067 C85.4629205,39.2402157 85.4629205,35.7594635 87.6112384,33.6111725 L98.6113301,22.6112183 C100.759648,20.4629272 104.240444,20.4629272 106.388762,22.6112183 C108.537079,24.7595093 108.537079,28.2402615 106.388762,30.3885525 L95.3886699,41.3885067 C93.2399853,43.5371644 89.7595563,43.5371644 87.6112384,41.3885067 Z" id="Path" fill="#D5E8FE"></path>
                <path d="M60,0 C51.1772444,0 44,7.28938889 44,16.25 C44,19.0905 44.7342222,21.8941667 46.1354667,24.3695833 L49.6615111,30.5691389 C53.0336,36.4975 54.6666667,43.2751944 54.6666667,48.9933889 L54.6666667,59.5833333 C54.6666667,62.5773056 57.0520889,65 60,65 C62.9479111,65 65.3333333,62.5773056 65.3333333,59.5833333 L65.3333333,48.8453333 C65.4478222,42.4446389 67.1772444,36.1288056 70.3384889,30.5695 L73.8542222,24.3804167 C75.2814222,21.8941667 76,19.1594722 76,16.25 C76,7.28938889 68.8227556,0 60,0 Z" id="Path" fill="#EDF5FF"></path>
                <path d="M65.3333333,59.5833333 L65.3333333,48.8453333 C65.4478222,42.4446389 67.1772444,36.1288056 70.3384889,30.5695 L73.8542222,24.3804167 C75.2814222,21.8941667 76,19.1594722 76,16.25 C76,7.28938889 68.8227556,0 60,0 L60,65 C62.9479111,65 65.3333333,62.5773056 65.3333333,59.5833333 Z" id="Path" fill="#D5E8FE"></path>
            </g>
        </g>
    </g>
</svg>

<svg xmlns="http://www.w3.org/2000/svg" width="159" height="224"><defs><filter id="a" width="145.4%" height="129.3%" x="-22.7%" y="-14.7%" filterUnits="objectBoundingBox"><feOffset dy="4" in="SourceAlpha" result="shadowOffsetOuter1"/><feGaussianBlur in="shadowOffsetOuter1" result="shadowBlurOuter1" stdDeviation="5"/><feColorMatrix in="shadowBlurOuter1" result="shadowMatrixOuter1" values="0 0 0 0 0 0 0 0 0 0 0 0 0 0 0 0 0 0 1 0"/><feMerge><feMergeNode in="shadowMatrixOuter1"/><feMergeNode in="SourceGraphic"/></feMerge></filter></defs><g fill="none" fill-rule="nonzero" filter="url(#a)" transform="translate(20 20)"><path fill="#FFB3B3" d="M86.55 130h-54.1A32.46 32.46 0 000 162.4a32.1 32.1 0 006.5 19.44 5.41 5.41 0 004.32 2.16h97.36c1.7 0 3.3-.8 4.33-2.16A32.1 32.1 0 00119 162.4 32.46 32.46 0 0086.55 130z"/><path fill="#F99" d="M112.45 181.84A31.93 31.93 0 00119 162.4c0-17.87-14.68-32.4-32.73-32.4H59v54h49.1c1.7 0 3.32-.8 4.35-2.16z"/><path fill="#FCC" d="M92.57 151.2c-3 0-5.43-2.4-5.43-5.39V87H32.86v58.81c0 2.98-2.44 5.4-5.43 5.4a5.4 5.4 0 00-5.43 5.4 5.4 5.4 0 005.43 5.39h65.14a5.4 5.4 0 100-10.8z"/><path fill="#FFB3B3" d="M97 156.6a5.4 5.4 0 00-5.43-5.4c-3 0-5.43-2.4-5.43-5.39V87H59v75h32.57c3 0 5.43-2.41 5.43-5.4z"/><path fill="#FFB3B3" d="M91.8 62.45C83.56 48.2 70.36 40.58 60 43.7c-10.35-3.11-23.56 4.5-31.8 18.76-4.11 7.12-6.31 15.22-6.2 22.17.14 7.84 3.31 14.12 8.71 17.24 9.76 5.62 21.69-.68 29.29-9.24 0 0 0 0 .01 0 9.05 10.16 20.8 14.14 29.28 9.24 5.4-3.12 8.57-9.4 8.7-17.24.12-6.95-2.08-15.05-6.19-22.17z"/><path fill="#F99" d="M88.29 101.91c5.4-3.12 8.57-9.41 8.7-17.25.12-6.96-2.08-15.07-6.19-22.19C82.56 48.2 69.36 40.57 59 43.7v48.97s0 0 .01 0c9.05 10.17 20.8 14.15 29.28 9.25z"/><path fill="#EDF5FF" d="M23.61 41.39l-11-11a5.5 5.5 0 117.78-7.78l11 11a5.5 5.5 0 11-7.78 7.78z"/><path fill="#D5E8FE" d="M87.61 41.39a5.5 5.5 0 010-7.78l11-11a5.5 5.5 0 117.78 7.78l-11 11a5.5 5.5 0 01-7.78 0z"/><path fill="#EDF5FF" d="M60 0c-8.82 0-16 7.29-16 16.25 0 2.84.73 5.64 2.14 8.12l3.52 6.2c3.37 5.93 5 12.7 5 18.42v10.6c0 2.99 2.4 5.41 5.34 5.41a5.37 5.37 0 005.33-5.42V48.85a38.46 38.46 0 015-18.28l3.52-6.19A16.12 16.12 0 0076 16.25C76 7.29 68.82 0 60 0z"/><path fill="#D5E8FE" d="M65.33 59.58V48.85a38.46 38.46 0 015-18.28l3.52-6.19A16.12 16.12 0 0076 16.25C76 7.29 68.82 0 60 0v65a5.37 5.37 0 005.33-5.42z"/></g></svg>
